docs/icons/sb.svg

<svg xmlns="http://www.w3.org/2000/svg" xmlns:xlink="http://www.w3.org/1999/xlink" width="16" height="20" version="1.1" viewBox="0 0 16 20"><title>storybook-icon/default</title><desc>Created with Sketch.</desc><defs><path id="path-1" d="M0.620279251,18.4293378 L0.000720094879,1.92089246 C-0.0197415137,1.37568327 0.398305374,0.913624829 0.942835893,0.879591672 L14.984425,0.00199234997 C15.5386921,-0.0326493419 16.016097,0.388590257 16.0507387,0.942857327 C16.0520438,0.963739972 16.0526969,0.984658267 16.0526969,1.00558166 L16.0526969,18.9944525 C16.0526969,19.549801 15.6024979,20 15.0471494,20 C15.0321047,20 15.017062,19.9996624 15.0020325,19.9989873 L1.58000252,19.3961612 C1.05726753,19.3726835 0.639903368,18.9522316 0.620279251,18.4293378 Z"/></defs><g id="storybook-icon/default" fill="none" fill-rule="evenodd" stroke="none" stroke-width="1"><mask id="mask-2" fill="#fff"><use xlink:href="#path-1"/></mask><use id="path1_fill-path" fill="#FF4785" fill-rule="nonzero" xlink:href="#path-1"/><path id="path2_fill-path" fill="#FFF" fill-rule="nonzero" d="M11.8537041,2.4583186 L11.9496157,0.15151183 L13.8779482,0 L13.9610222,2.37893005 C13.9639134,2.46172229 13.8991408,2.53118243 13.8163485,2.53407359 C13.780898,2.53531156 13.7461558,2.52394606 13.7182911,2.50199528 L12.9746642,1.91619251 L12.094228,2.584057 C12.0282261,2.63412351 11.934134,2.62120528 11.8840675,2.55520331 C11.862992,2.52741977 11.8522554,2.49316117 11.8537041,2.4583186 Z" mask="url(#mask-2)"/><path id="path9_fill-path" fill="#FFF" fill-rule="nonzero" d="M9.38755179,7.53827354 C9.38755179,7.92949033 12.0227349,7.74199033 12.376485,7.4671875 C12.376485,4.80309448 10.9469952,3.40315552 8.32935804,3.40315552 C5.71172085,3.40315552 4.24510144,4.82487559 4.24510144,6.95745682 C4.24510144,10.6717025 9.25759817,10.7427885 9.25759817,12.7687407 C9.25759817,13.337429 8.97912613,13.6750877 8.36648764,13.6750877 C7.56820113,13.6750877 7.25259948,13.2673973 7.28972909,11.8812195 C7.28972909,11.5805064 4.24510144,11.4867564 4.15227743,11.8812195 C3.91590969,15.2404217 6.0087577,16.2093445 8.40361725,16.2093445 C10.7242176,16.2093445 12.5435683,14.9724079 12.5435683,12.7331976 C12.5435683,8.75237935 7.45681231,8.85900841 7.45681231,6.88637078 C7.45681231,6.08665282 8.050886,5.98002376 8.40361725,5.98002376 C8.7749133,5.98002376 9.4432462,6.04546668 9.38755179,7.53827354 Z" mask="url(#mask-2)"/></g></svg>

<svg xmlns="http://www.w3.org/2000/svg" xmlns:xlink="http://www.w3.org/1999/xlink" width="16" height="20" xmlns:v="https://vecta.io/nano"><defs><path id="A" d="M.62 18.429L.001 1.921C-.02 1.376.398.914.943.88L14.984.002c.554-.035 1.032.387 1.066.941l.002.063v17.989c0 .555-.45 1.006-1.006 1.006-.015 0-.03 0-.045-.001L1.58 19.396c-.523-.023-.94-.444-.96-.967z"/></defs><g fill-rule="evenodd"><mask id="B" fill="#fff"><use xlink:href="#A"/></mask><g fill-rule="nonzero"><use fill="#ff4785" xlink:href="#A"/><path d="M11.854 2.458L11.95.152 13.878 0l.083 2.379a.15.15 0 0 1-.243.123l-.744-.586-.88.668a.15.15 0 0 1-.241-.126zm-2.466 5.08c0 .391 2.635.204 2.989-.071 0-2.664-1.429-4.064-4.047-4.064S4.245 4.825 4.245 6.957c0 3.714 5.012 3.785 5.012 5.811 0 .569-.278.906-.891.906-.798 0-1.114-.408-1.077-1.794 0-.301-3.045-.394-3.137 0-.236 3.359 1.856 4.328 4.251 4.328 2.321 0 4.14-1.237 4.14-3.476 0-3.981-5.087-3.874-5.087-5.847 0-.8.594-.906.947-.906.371 0 1.04.065.984 1.558z" mask="url(#B)" fill="#fff"/></g></g></svg>
